X: 25
T: No_21_Sun_Dance_Song_(d).krn
N: Derived from No_21_Sun_Dance_Song_(d).krn
%%abc-version 2.0
%%abcx-abcm2ps-target-version 5.9.1 (29 Sep 2008)
%%abc-creator hum2abc beta
%%abcx-conversion-date 2019/03/15 08:36:49
%%humdrum-veritas 1375867439
%%humdrum-veritas-data 1365727085
%%linebreak <none>
%%barnumbers 0
L: 1/8
M: 3/4
%%staves {1 2}
V: 1 clef=bass
V: 2 clef=bass
K: Db
[V:1] [K:clef=bass][M:3/4]F3/E/D2B,2 | 
[V:2] [K:clef=bass][M:3/4]G,,G,, G,,G,, G,,G,, | 
[V:1] F/FE/F2F2 | 
[V:2] z6 | 
[V:1] F/FE/D2B,2 | 
[V:2] z6 | 
[V:1] F/FE/ D3/D/D2 ||  
[V:2] z6 ||  
[V:1] [M:2/4]B,/B,3/ F,3/F,/ | 
[V:2] [M:2/4]z4 | 
[V:1] F,4 | 
[V:2] z4 | 
[V:1] B,/B,3/F,2 ||  
[V:2] z4 ||  
[V:1] [M:3/4]B,/B,3/B,4 ||  
[V:2] [M:3/4]z6 ||  
[V:1] [M:2/4]B,/B,3/ F,3/F,/ | 
[V:2] [M:2/4]z4 | 
[V:1] F,4 | 
[V:2] z4 | 
[V:1] B,/B,3/ F,3/F,/ | 
[V:2] z4 | 
[V:1] F,3F, ||  
[V:2] z4 ||  
[V:1] [M:3/4]G,F,F,4 ||  
[V:2] [M:3/4]z6 ||  
[V:1] [M:2/4]D/D3/B,2 ||  
[V:2] [M:2/4]z4 ||  
[V:1] [M:3/4]F/FE/ D3/D/D2 ||  
[V:2] [M:3/4]z6 ||  
[V:1] [M:2/4]B,/B,3/ F,3/F,/ | 
[V:2] [M:2/4]z4 | 
[V:1] F,4 | 
[V:2] z4 | 
[V:1] B,/B,3/F,2 ||  
[V:2] z4 ||  
[V:1] [M:3/4]B,/B,3/B,4 ||  
[V:2] [M:3/4]z6 ||  
[V:1] [M:2/4]B,/B,3/ F,3/F,/ | 
[V:2] [M:2/4]z4 | 
[V:1] F,4 | 
[V:2] z4 | 
[V:1] B,/B,3/ F,3/F,/ | 
[V:2] z4 | 
[V:1] G,F,F,2 |]  
[V:2] z4 |]  



